X: 896
T: the Old Vest and Cravat   #2
R: hornpipe
%S: s:3 b:14(6+4+4)
B: Francis O'Neill: "The Dance Music of Ireland" (1907) #896
Z: Frank Nordberg - http://www.musicaviva.com
F: http://www.musicaviva.com/abc/tunes/ireland/oneill-1001/0896/oneill-1001-0896-1.abc
M: C|
L: 1/8
K: D
"^A"\
|: (FG) | ABGA FGAB | cBcA d2(de) | fedc AG [1,3 FG | Adce d2 :| [2,4 EC | D2DD D2 :|
"^B"\
|:(FG) | Adde f2(ed) | dcAG A2(AG) | Adde f2(ed) | dcec d2 ||
| (de) | fdef defg | fdcA cdef | dfed cAGE | D2DD D2 :|
